X:2
T:Blue Moon of Kentucky
M:3/4
L:1/8
C:Bill Monroe
O:USA
G:Bluegrass
Z: Transcribed by Doc Larry (laurens@scheinraum.de)
K:Cmaj
"C" z4 g2 | a g4 e | d c3 d/2c/2 | "F" (3AGF-F4 |1  
w: Blue moon of Ken-tuc-ky, keep on shi-ning_ 
"F" z4 c2 | "C" c3 G c e | g3 g (3edc | "G" d6 :|2
w: Shine on the one that's gone and left_ me blue 
"F" z4 c2 | "C" c3 d c G | "G"B3 G (3edc | "C" c6 |
w: Shine on the one that's gone and said_ good-bye
W: It was on one moonlight night 
W: Stars shining bright 
W: Whisper on high 
W: Love said goodbye 

